brandFactory_export/3.Masa/Adjuntar_3Masa.svg

<?xml version="1.0" encoding="UTF-8"?>
<svg width="24px" height="24px" viewBox="0 0 24 24" version="1.1" xmlns="http://www.w3.org/2000/svg" xmlns:xlink="http://www.w3.org/1999/xlink">
    <title>3.Masa/Adjuntar_3Masa</title>
    <g id="Symbols" stroke="none" stroke-width="1" fill="none" fill-rule="evenodd">
        <g id="3.Masa/Adjuntar_3Masa" fill="#5CB615" fill-rule="nonzero">
            <path d="M16.8756303,4.07058824 C16.3378151,4.06386555 15.9008403,4.49411765 15.8941176,5.02857143 L15.8806723,18.3361345 C15.8806723,20.6319328 14.7848739,21.7008403 12.4386555,21.7008403 C10.0890756,21.7008403 8.99327731,20.6319328 8.99327731,18.3361345 L8.99327731,3.94621849 C8.99327731,2.52436975 9.61176471,1.91932773 11.0672269,1.91932773 C12.5226891,1.91932773 13.1411765,2.52436975 13.1411765,3.94957983 L13.1714286,17.5764706 C13.1714286,18.0235294 13.0773109,18.1142857 12.6201681,18.1142857 C12.1630252,18.1142857 12.0722689,18.0235294 12.0722689,17.5764706 L12.0722689,5.09243697 C12.0655462,4.55798319 11.6285714,4.12773109 11.0907563,4.13109244 C10.5563025,4.12436975 10.1159664,4.55462185 10.1092437,5.08907563 L10.1092437,17.5731092 C10.1092437,19.0890756 11.0705882,20.0302521 12.6235294,20.0302521 C14.1731092,20.0302521 15.1378151,19.0890756 15.1378151,17.5731092 L15.107563,3.94621849 C15.1042017,1.47563025 13.594958,0 11.0672269,0 C8.5394958,0 7.0302521,1.47563025 7.0302521,3.94621849 L7.0302521,18.3361345 C7.0302521,21.6941176 9,23.6235294 12.4386555,23.6235294 C15.8739496,23.6235294 17.8436975,21.697479 17.8436975,18.3394958 L17.8571429,5.03193277 C17.8504202,4.49411765 17.4134454,4.06722689 16.8756303,4.07058824" id="Path"></path>
        </g>
    </g>
</svg>

<svg width="24" height="24" viewBox="0 0 24 24" xmlns="http://www.w3.org/2000/svg"><path d="M16.876 4.07a.97.97 0 00-.982.959l-.013 13.307c0 2.296-1.096 3.365-3.442 3.365-2.35 0-3.446-1.07-3.446-3.365V3.946c0-1.422.619-2.027 2.074-2.027 1.456 0 2.074.605 2.074 2.03l.03 13.627c0 .448-.094.538-.55.538-.458 0-.549-.09-.549-.538V5.092a.974.974 0 00-.981-.96.971.971 0 00-.982.957v12.484c0 1.516.962 2.457 2.515 2.457 1.55 0 2.514-.94 2.514-2.457l-.03-13.627C15.104 1.476 13.595 0 11.068 0 8.538 0 7.03 1.476 7.03 3.946v14.39c0 3.358 1.97 5.288 5.409 5.288 3.435 0 5.405-1.927 5.405-5.285l.013-13.307a.972.972 0 00-.981-.961" fill="#5CB615" fill-rule="nonzero"/></svg>
